flaticon/arrows/drag-1.svg

<svg xmlns="http://www.w3.org/2000/svg" width="32" height="32" viewBox="0 0 24 24">
    <path d="M 14.238281 7.074219 L 14.238281 11.546875 L 1.394531 11.546875 L 6.027344 6.953125 C 6.1875 6.796875 6.1875 6.539062 6.03125 6.378906 C 5.871094 6.21875 5.613281 6.21875 5.453125 6.375 L 0.121094 11.664062 C 0.0820312 11.703125 0.0507812 11.746094 0.03125 11.796875 C 0.0117188 11.847656 0 11.898438 0 11.953125 C 0 11.964844 0.00390625 11.972656 0.0078125 11.984375 C 0.0078125 12.027344 0.015625 12.066406 0.03125 12.109375 C 0.0507812 12.152344 0.078125 12.191406 0.109375 12.226562 C 0.113281 12.230469 0.113281 12.234375 0.117188 12.238281 L 0.117188 12.242188 C 0.117188 12.242188 0.121094 12.242188 0.121094 12.242188 L 5.453125 17.621094 C 5.53125 17.699219 5.636719 17.742188 5.742188 17.742188 C 5.84375 17.742188 5.949219 17.703125 6.027344 17.621094 C 6.1875 17.464844 6.1875 17.207031 6.027344 17.046875 L 1.382812 12.359375 L 14.238281 12.359375 L 14.238281 16.835938 L 24 16.835938 L 24 7.074219 Z M 23.1875 16.019531 L 15.050781 16.019531 L 15.050781 7.886719 L 23.1875 7.886719 Z M 23.1875 16.019531"/>
</svg>

<svg xmlns="http://www.w3.org/2000/svg" width="32" height="32" viewBox="0 0 24 24">
    <path d="M14.238 7.074v4.473H1.395l4.632-4.594a.407.407 0 1 0-.574-.578l-5.332 5.29a.381.381 0 0 0-.09.132.429.429 0 0 0-.031.156c0 .012.004.02.008.031 0 .043.008.082.023.125.02.043.047.082.078.118.004.003.004.007.008.011v.004h.004l5.332 5.38a.412.412 0 0 0 .29.12c.1 0 .206-.039.284-.12a.403.403 0 0 0 0-.575l-4.644-4.688h12.855v4.477H24V7.074zm8.95 8.946H15.05V7.887h8.136zm0 0"/>
</svg>
